X: 1
T: The Three Drummers
R: jig
M: 6/8
L: 1/8
K: Ddor
|:ADD ADD| EDE CEG| ADD ADD| EDC DEG|
ADD ADD | EDE C2G| GAB cGE|EDC DEG:|
|:Add dcd |ede cAG| Add dcd|ede c2B|
Add dcd |ede cAG|GAB cGE|EDC DEG:|

